assets/icons/icon-printer/web/icon-printer.svg

<?xml version="1.0" encoding="UTF-8" standalone="no"?>
<svg width="48px" height="48px" viewBox="0 0 48 48" version="1.1" xmlns="http://www.w3.org/2000/svg" xmlns:xlink="http://www.w3.org/1999/xlink">
    <!-- Generator: Sketch 45.2 (43514) - http://www.bohemiancoding.com/sketch -->
    <title>icon-printer</title>
    <desc>Created with Sketch.</desc>
    <defs></defs>
    <g id="Symbols" stroke="none" stroke-width="1" fill="none" fill-rule="evenodd">
        <g id="icon-printer" fill="#2D2D2D">
            <g transform="translate(13.000000, 14.000000)">
                <path d="M18.0603027,18 L19.9984243,18 C20.5471234,18 21,17.5465513 21,16.9905224 L21,7.00947762 C21,6.44563223 20.553655,6 19.9931517,6 L3.00684834,6 C2.44553715,6 2,6.44697617 2,7.00947762 L2,16.9905224 C2,17.5561171 2.44285856,18 2.9951185,18 L5,18 L5,20 L2.9951185,20 C1.34096023,20 0,18.6633689 0,16.9905224 L0,7.00947762 C0,5.34738902 1.33599155,4 3.00684834,4 L19.9931517,4 C21.6537881,4 23,5.33663106 23,7.00947762 L23,16.9905224 C23,18.652611 21.650206,20 19.9984243,20 L18.0603027,20 L18.0603027,18 Z M18.0603027,18 L19.9984243,18 C20.5471234,18 21,17.5465513 21,16.9905224 L21,7.00947762 C21,6.44563223 20.553655,6 19.9931517,6 L3.00684834,6 C2.44553715,6 2,6.44697617 2,7.00947762 L2,16.9905224 C2,17.5561171 2.44285856,18 2.9951185,18 L5,18 L5,20 L2.9951185,20 C1.34096023,20 0,18.6633689 0,16.9905224 L0,7.00947762 C0,5.34738902 1.33599155,4 3.00684834,4 L19.9931517,4 C21.6537881,4 23,5.33663106 23,7.00947762 L23,16.9905224 C23,18.652611 21.650206,20 19.9984243,20 L18.0603027,20 L18.0603027,18 Z" id="Rectangle-7" fill-rule="nonzero"></path>
                <path d="M6,4 L17,4 L17,2 L6,2 L6,4 Z M4,1.99791312 C4,0.894496173 4.89339733,0 5.99188419,0 L17.0081158,0 C18.1082031,0 19,0.898260623 19,1.99791312 L19,6 L4,6 L4,1.99791312 Z" id="Rectangle-7-Copy" fill-rule="nonzero"></path>
                <path d="M6,21.007983 C6,21.0065336 6.00001594,21.0053463 6,21.0043738 L6,21.007983 Z M17,21 L17,14 L6,14 L6,21 L17,21 Z M4,12 L19,12 L19,21.007983 C19,22.1081436 18.1066027,23 17.0081158,23 L5.99188419,23 C4.89179693,23 4,22.0998238 4,21.007983 L4,12 Z" id="Rectangle-7-Copy-2" fill-rule="nonzero"></path>
                <rect id="Rectangle-8" x="8" y="18" width="7" height="2" rx="1"></rect>
                <rect id="Rectangle-8-Copy" x="8" y="15" width="4" height="2" rx="1"></rect>
                <circle id="Oval-2" cx="18" cy="9" r="1"></circle>
                <circle id="Oval-2-Copy-2" cx="15" cy="9" r="1"></circle>
            </g>
        </g>
    </g>
</svg>

<svg width="48" height="48" viewBox="0 0 48 48" xmlns="http://www.w3.org/2000/svg"><title>icon-printer</title><g transform="translate(13 14)" fill="#2D2D2D" fill-rule="evenodd"><path d="M18.06 18h1.938A1.01 1.01 0 0 0 21 16.99V7.01C21 6.445 20.554 6 19.993 6H3.007C2.446 6 2 6.447 2 7.01v9.98c0 .566.443 1.01.995 1.01H5v2H2.995A2.995 2.995 0 0 1 0 16.99V7.01A3.002 3.002 0 0 1 3.007 4h16.986A3.001 3.001 0 0 1 23 7.01v9.98A3.01 3.01 0 0 1 19.998 20H18.06v-2zm0 0h1.938A1.01 1.01 0 0 0 21 16.99V7.01C21 6.445 20.554 6 19.993 6H3.007C2.446 6 2 6.447 2 7.01v9.98c0 .566.443 1.01.995 1.01H5v2H2.995A2.995 2.995 0 0 1 0 16.99V7.01A3.002 3.002 0 0 1 3.007 4h16.986A3.001 3.001 0 0 1 23 7.01v9.98A3.01 3.01 0 0 1 19.998 20H18.06v-2z" fill-rule="nonzero"/><path d="M6 4h11V2H6v2zM4 1.998C4 .894 4.893 0 5.992 0h11.016C18.108 0 19 .898 19 1.998V6H4V1.998zM6 21.008v-.004.004zM17 21v-7H6v7h11zM4 12h15v9.008c0 1.1-.893 1.992-1.992 1.992H5.992C4.892 23 4 22.1 4 21.008V12z" fill-rule="nonzero"/><rect x="8" y="18" width="7" height="2" rx="1"/><rect x="8" y="15" width="4" height="2" rx="1"/><circle cx="18" cy="9" r="1"/><circle cx="15" cy="9" r="1"/></g></svg>
